X: 42132
T: Washington's March
R: jig
M: 6/8
K: Dmixolydian
|:A2 F A2 D|A2 F A2 D|B>AG A2 F|G>AF E2 D:|
|:B2 A B2 E|B2 A B2 E|E<BA B2 E|c<dF E3:|
|:F3 G3|A>dA A>GF|G2 F E>DE/F/|D3 D3:|

